;FLAVOR:Marlin
;TIME:6158
;Filament used: 1.71452m
;Layer height: 0.15
;Generated with Cura_SteamEngine 3.6.0
M140 S54
M105
M190 S54
M104 S194
M105
M109 S194
M82 ;absolute extrusion mode
G28 ;Home
G1 Z15.0 F6000 ;Move the platform down 15mm
;Prime the extruder
G92 E0
G1 F200 E3
G92 E0
G92 E0
G1 F3000 E-4
;LAYER_COUNT:65
;LAYER:0
M107
G0 F3600 X-39.997 Y-31.625 Z0.21
;TYPE:SKIRT
G1 F3000 E0
G1 F1800 X40 Y-31.625 E0.92168
G1 X40.792 Y-31.585 E0.93082
G1 X41.577 Y-31.466 E0.93997
G1 X42.345 Y-31.268 E0.9491
G1 X43.09 Y-30.993 E0.95825
G1 X43.803 Y-30.646 E0.96739
G1 X44.478 Y-30.228 E0.97654
G1 X45.107 Y-29.745 E0.98567
G1 X45.684 Y-29.2 E0.99482
G1 X46.204 Y-28.601 E1.00396
G1 X46.66 Y-27.952 E1.0131
G1 X47.049 Y-27.26 E1.02224
G1 X47.367 Y-26.533 E1.03139
G1 X47.61 Y-25.777 E1.04053
G1 X47.775 Y-25.001 E1.04968
G1 X47.861 Y-24.213 E1.05881
G1 X47.875 Y-23.75 E1.06415
G1 X47.875 Y23.75 E1.61141
G1 X47.835 Y24.542 E1.62055
G1 X47.716 Y25.327 E1.6297
G1 X47.518 Y26.095 E1.63884
G1 X47.243 Y26.84 E1.64799
G1 X46.896 Y27.553 E1.65712
G1 X46.478 Y28.228 E1.66627
G1 X45.995 Y28.857 E1.67541
G1 X45.45 Y29.434 E1.68455
G1 X44.851 Y29.954 E1.69369
G1 X44.202 Y30.41 E1.70283
G1 X43.51 Y30.799 E1.71198
G1 X42.783 Y31.117 E1.72112
G1 X42.027 Y31.36 E1.73027
G1 X41.251 Y31.525 E1.73941
G1 X40.463 Y31.611 E1.74854
G1 X40 Y31.625 E1.75388
G1 X-40 Y31.622 E2.67559
G1 X-40.793 Y31.582 E2.68474
G1 X-41.577 Y31.462 E2.69388
G1 X-42.346 Y31.265 E2.70303
G1 X-43.09 Y30.99 E2.71217
G1 X-43.803 Y30.643 E2.7213
G1 X-44.478 Y30.225 E2.73045
G1 X-45.107 Y29.741 E2.73959
G1 X-45.684 Y29.197 E2.74873
G1 X-46.204 Y28.597 E2.75788
G1 X-46.661 Y27.948 E2.76702
G1 X-47.05 Y27.257 E2.77616
G1 X-47.367 Y26.53 E2.7853
G1 X-47.61 Y25.774 E2.79445
G1 X-47.775 Y24.998 E2.80359
G1 X-47.861 Y24.209 E2.81273
G1 X-47.875 Y23.747 E2.81806
G1 X-47.872 Y-23.75 E3.36529
G1 X-47.832 Y-24.543 E3.37444
G1 X-47.712 Y-25.327 E3.38358
G1 X-47.515 Y-26.096 E3.39272
G1 X-47.24 Y-26.84 E3.40186
G1 X-46.893 Y-27.554 E3.41101
G1 X-46.475 Y-28.228 E3.42015
G1 X-45.991 Y-28.857 E3.42929
G1 X-45.447 Y-29.435 E3.43844
G1 X-44.847 Y-29.954 E3.44758
G1 X-44.198 Y-30.411 E3.45672
G1 X-43.507 Y-30.8 E3.46586
G1 X-42.779 Y-31.117 E3.47501
G1 X-42.024 Y-31.36 E3.48414
G1 X-41.248 Y-31.525 E3.49328
G1 X-40.862 Y-31.567 E3.49776
G0 F1620 X-40.459 Y-31.611
G0 X-39.997 Y-31.625
G0 F3600 X-39.997 Y-31.275
G1 F3000 E3.50776
G1 F1800 X40 Y-31.275 E4.42944
G1 X40.775 Y-31.235 E4.43838
G1 X41.541 Y-31.116 E4.44731
G1 X42.291 Y-30.918 E4.45625
G1 X43.017 Y-30.644 E4.46519
G1 X43.71 Y-30.297 E4.47412
G1 X44.364 Y-29.88 E4.48306
G1 X44.972 Y-29.398 E4.492
G1 X45.527 Y-28.856 E4.50093
G1 X46.024 Y-28.26 E4.50987
G1 X46.456 Y-27.616 E4.51881
G1 X46.819 Y-26.931 E4.52774
G1 X47.111 Y-26.212 E4.53668
G1 X47.326 Y-25.467 E4.54562
G1 X47.464 Y-24.704 E4.55455
G1 X47.525 Y-23.75 E4.56556
G1 X47.525 Y23.75 E5.11283
G1 X47.485 Y24.525 E5.12177
G1 X47.366 Y25.291 E5.13071
G1 X47.168 Y26.041 E5.13964
G1 X46.894 Y26.767 E5.14858
G1 X46.547 Y27.46 E5.15751
G1 X46.13 Y28.114 E5.16645
G1 X45.648 Y28.722 E5.17539
G1 X45.106 Y29.277 E5.18433
G1 X44.51 Y29.774 E5.19327
G1 X43.866 Y30.206 E5.2022
G1 X43.181 Y30.569 E5.21113
G1 X42.462 Y30.861 E5.22007
G1 X41.717 Y31.076 E5.22901
G1 X40.954 Y31.214 E5.23794
G1 X40 Y31.275 E5.24896
G1 X-40 Y31.272 E6.17067
G1 X-40.775 Y31.232 E6.17961
G1 X-41.541 Y31.112 E6.18855
G1 X-42.291 Y30.915 E6.19748
G1 X-43.017 Y30.641 E6.20642
G1 X-43.71 Y30.294 E6.21535
G1 X-44.365 Y29.877 E6.2243
G1 X-44.972 Y29.395 E6.23323
G1 X-45.527 Y28.853 E6.24217
G1 X-46.024 Y28.257 E6.25111
G1 X-46.456 Y27.613 E6.26004
G1 X-46.82 Y26.928 E6.26898
G1 X-47.111 Y26.209 E6.27791
G1 X-47.326 Y25.464 E6.28685
G1 X-47.464 Y24.701 E6.29578
G1 X-47.525 Y23.747 E6.3068
G1 X-47.522 Y-23.75 E6.85403
G1 X-47.482 Y-24.525 E6.86297
G1 X-47.362 Y-25.291 E6.87191
G1 X-47.165 Y-26.041 E6.88084
G1 X-46.891 Y-26.767 E6.88978
G1 X-46.544 Y-27.461 E6.89872
G1 X-46.127 Y-28.115 E6.90766
G1 X-45.645 Y-28.723 E6.9166
G1 X-45.103 Y-29.278 E6.92553
G1 X-44.507 Y-29.774 E6.93447
G1 X-43.863 Y-30.206 E6.9434
G1 X-43.178 Y-30.57 E6.95234
G1 X-42.459 Y-30.861 E6.96128
G1 X-41.714 Y-31.077 E6.97021
G1 X-40.951 Y-31.214 E6.97914
G1 X-40.864 Y-31.22 E6.98015
G0 F1620 X-39.997 Y-31.275
G0 F3600 X-39.997 Y-30.925
G1 F3000 E6.99015
G1 F1800 X40 Y-30.925 E7.91183
G1 X40.756 Y-30.885 E7.92055
G1 X41.504 Y-30.766 E7.92928
G1 X42.235 Y-30.568 E7.93801
G1 X42.942 Y-30.294 E7.94674
G1 X43.615 Y-29.948 E7.95546
G1 X44.248 Y-29.532 E7.96419
G1 X44.834 Y-29.052 E7.97292
G1 X45.366 Y-28.513 E7.98164
G1 X45.838 Y-27.921 E7.99036
G1 X46.245 Y-27.282 E7.99909
G1 X46.583 Y-26.604 E8.00782
G1 X46.847 Y-25.895 E8.01654
G1 X47.035 Y-25.161 E8.02527
G1 X47.144 Y-24.412 E8.03399
G1 X47.175 Y-23.75 E8.04162
G1 X47.175 Y23.75 E8.58889
G1 X47.135 Y24.506 E8.59762
G1 X47.016 Y25.254 E8.60634
G1 X46.818 Y25.985 E8.61507
G1 X46.544 Y26.692 E8.6238
G1 X46.198 Y27.365 E8.63252
G1 X45.782 Y27.998 E8.64125
G1 X45.302 Y28.584 E8.64998
G1 X44.763 Y29.116 E8.6587
G1 X44.171 Y29.588 E8.66743
G1 X43.532 Y29.995 E8.67615
G1 X42.854 Y30.333 E8.68488
G1 X42.145 Y30.597 E8.6936
G1 X41.411 Y30.785 E8.70233
G1 X40.662 Y30.894 E8.71105
G1 X40 Y30.925 E8.71869
G1 X-40 Y30.922 E9.6404
G1 X-40.757 Y30.882 E9.64914
G1 X-41.504 Y30.763 E9.65785
G1 X-42.236 Y30.565 E9.66659
G1 X-42.942 Y30.291 E9.67531
G1 X-43.615 Y29.945 E9.68403
G1 X-44.248 Y29.529 E9.69276
G1 X-44.834 Y29.049 E9.70149
G1 X-45.366 Y28.51 E9.71021
G1 X-45.838 Y27.918 E9.71894
G1 X-46.245 Y27.279 E9.72766
G1 X-46.583 Y26.601 E9.73639
G1 X-46.847 Y25.891 E9.74512
G1 X-47.035 Y25.158 E9.75384
G1 X-47.144 Y24.408 E9.76257
G1 X-47.175 Y23.747 E9.77019
G1 X-47.172 Y-23.75 E10.31743
G1 X-47.132 Y-24.507 E10.32616
G1 X-47.012 Y-25.255 E10.33489
G1 X-46.815 Y-25.986 E10.34361
G1 X-46.541 Y-26.692 E10.35234
G1 X-46.195 Y-27.365 E10.36106
G1 X-45.779 Y-27.998 E10.36979
G1 X-45.299 Y-28.584 E10.37851
G1 X-44.76 Y-29.116 E10.38724
G1 X-44.168 Y-29.588 E10.39596
G1 X-43.529 Y-29.995 E10.40469
G1 X-42.851 Y-30.333 E10.41342
G1 X-42.141 Y-30.597 E10.42215
G1 X-41.407 Y-30.785 E10.43088
G1 X-40.863 Y-30.865 E10.43721
G0 F1620 X-40.658 Y-30.894
G0 X-39.997 Y-30.925
G0 F3600 X-39.997 Y-30.575
G1 F3000 E10.44721
G1 F1800 X40 Y-30.575 E11.36889
G1 X40.738 Y-30.535 E11.37741
G1 X41.466 Y-30.416 E11.38591
G1 X42.178 Y-30.218 E11.39442
G1 X42.864 Y-29.945 E11.40293
G1 X43.517 Y-29.599 E11.41144
G1 X44.129 Y-29.185 E11.41996
G1 X44.692 Y-28.707 E11.42847
G1 X45.2 Y-28.171 E11.43698
G1 X45.647 Y-27.583 E11.44549
G1 X46.028 Y-26.95 E11.454
G1 X46.339 Y-26.28 E11.46251
G1 X46.575 Y-25.58 E11.47102
G1 X46.734 Y-24.859 E11.47953
G1 X46.815 Y-24.124 E11.48804
G1 X46.825 Y-23.75 E11.49236
G1 X46.825 Y23.75 E12.03963
G1 X46.785 Y24.488 E12.04814
G1 X46.666 Y25.216 E12.05664
G1 X46.468 Y25.928 E12.06515
G1 X46.195 Y26.614 E12.07366
G1 X45.849 Y27.267 E12.08218
G1 X45.435 Y27.879 E12.09069
G1 X44.957 Y28.442 E12.0992
G1 X44.421 Y28.95 E12.10771
G1 X43.833 Y29.397 E12.11622
G1 X43.2 Y29.778 E12.12473
G1 X42.53 Y30.089 E12.13324
G1 X41.83 Y30.325 E12.14175
G1 X41.109 Y30.484 E12.15026
G1 X40.374 Y30.565 E12.15878
G1 X40 Y30.575 E12.16309
G1 X-40 Y30.572 E13.0848
G1 X-40.738 Y30.532 E13.09332
G1 X-41.467 Y30.413 E13.10183
G1 X-42.178 Y30.215 E13.11033
G1 X-42.865 Y29.942 E13.11885
G1 X-43.517 Y29.596 E13.12735
G1 X-44.129 Y29.181 E13.13587
G1 X-44.692 Y28.703 E13.14438
G1 X-45.2 Y28.167 E13.15289
G1 X-45.647 Y27.579 E13.1614
G1 X-46.028 Y26.947 E13.1699
G1 X-46.339 Y26.277 E13.17841
G1 X-46.575 Y25.577 E13.18692
G1 X-46.734 Y24.855 E13.19544
G1 X-46.815 Y24.121 E13.20395
G1 X-46.825 Y23.747 E13.20826
G1 X-46.822 Y-23.75 E13.7555
G1 X-46.782 Y-24.488 E13.76401
G1 X-46.662 Y-25.217 E13.77252
G1 X-46.465 Y-25.929 E13.78104
G1 X-46.192 Y-26.615 E13.78954
G1 X-45.846 Y-27.268 E13.79806
G1 X-45.431 Y-27.879 E13.80657
G1 X-44.953 Y-28.442 E13.81508
G1 X-44.417 Y-28.95 E13.82358
G1 X-43.829 Y-29.397 E13.83209
G1 X-43.197 Y-29.779 E13.8406
G1 X-42.526 Y-30.089 E13.84912
G1 X-41.827 Y-30.325 E13.85762
G1 X-41.105 Y-30.484 E13.86614
G1 X-40.862 Y-30.511 E13.86895
G0 F1620 X-40.371 Y-30.565
G0 X-39.997 Y-30.575
G0 F3600 X-39.997 Y-30.225
G1 F3000 E13.87895
G1 F1800 X40 Y-30.225 E14.80064
G1 X40.718 Y-30.185 E14.80892
G1 X41.428 Y-30.066 E14.81722
G1 X42.12 Y-29.868 E14.82551
G1 X42.785 Y-29.595 E14.83379
G1 X43.417 Y-29.25 E14.84209
G1 X44.006 Y-28.837 E14.85037
G1 X44.545 Y-28.361 E14.85866
G1 X45.029 Y-27.829 E14.86695
G1 X45.45 Y-27.246 E14.87523
G1 X45.804 Y-26.619 E14.88353
G1 X46.087 Y-25.958 E14.89181
G1 X46.294 Y-25.269 E14.9001
G1 X46.424 Y-24.561 E14.90839
G1 X46.475 Y-23.75 E14.91776
G1 X46.475 Y23.75 E15.46503
G1 X46.435 Y24.468 E15.47331
G1 X46.316 Y25.178 E15.48161
G1 X46.118 Y25.87 E15.4899
G1 X45.845 Y26.535 E15.49818
G1 X45.5 Y27.167 E15.50648
G1 X45.087 Y27.756 E15.51476
G1 X44.611 Y28.295 E15.52305
G1 X44.079 Y28.779 E15.53134
G1 X43.496 Y29.2 E15.53962
G1 X42.869 Y29.554 E15.54792
G1 X42.208 Y29.837 E15.5562
G1 X41.519 Y30.044 E15.56449
G1 X40.811 Y30.174 E15.57278
G1 X40 Y30.225 E15.58215
G1 X-40 Y30.222 E16.50386
G1 X-40.719 Y30.182 E16.51216
G1 X-41.428 Y30.063 E16.52044
G1 X-42.12 Y29.865 E16.52874
G1 X-42.786 Y29.592 E16.53703
G1 X-43.417 Y29.247 E16.54532
G1 X-44.006 Y28.834 E16.5536
G1 X-44.546 Y28.358 E16.5619
G1 X-45.029 Y27.826 E16.57018
G1 X-45.45 Y27.242 E16.57847
G1 X-45.805 Y26.616 E16.58676
G1 X-46.087 Y25.955 E16.59504
G1 X-46.294 Y25.266 E16.60333
G1 X-46.424 Y24.558 E16.61162
G1 X-46.475 Y23.747 E16.62099
G1 X-46.472 Y-23.75 E17.16822
G1 X-46.432 Y-24.469 E17.17652
G1 X-46.313 Y-25.178 E17.1848
G1 X-46.115 Y-25.87 E17.19309
G1 X-45.842 Y-26.536 E17.20139
G1 X-45.497 Y-27.167 E17.20967
G1 X-45.084 Y-27.756 E17.21796
G1 X-44.608 Y-28.296 E17.22625
G1 X-44.075 Y-28.779 E17.23454
G1 X-43.492 Y-29.201 E17.24283
G1 X-42.866 Y-29.555 E17.25112
G1 X-42.204 Y-29.837 E17.25941
G1 X-41.515 Y-30.044 E17.2677
G1 X-40.863 Y-30.164 E17.27534
G0 F1620 X-40.808 Y-30.174
G0 X-39.997 Y-30.225
G0 F3600 X-39.997 Y-29.875
G1 F3000 E17.28534
G1 F1800 X40 Y-29.875 E18.20702
G1 X40.699 Y-29.835 E18.21509
G1 X41.388 Y-29.716 E18.22314
G1 X42.059 Y-29.518 E18.2312
G1 X42.704 Y-29.246 E18.23927
G1 X43.313 Y-28.902 E18.24733
G1 X43.879 Y-28.49 E18.25539
G1 X44.394 Y-28.017 E18.26345
G1 X44.852 Y-27.488 E18.27151
G1 X45.247 Y-26.91 E18.27958
G1 X45.573 Y-26.291 E18.28764
G1 X45.827 Y-25.639 E18.2957
G1 X46.004 Y-24.962 E18.30376
G1 X46.103 Y-24.269 E18.31183
G1 X46.125 Y-23.75 E18.31781
G1 X46.125 Y23.75 E18.86508
G1 X46.085 Y24.449 E18.87315
G1 X45.966 Y25.138 E18.8812
G1 X45.768 Y25.809 E18.88926
G1 X45.496 Y26.454 E18.89733
G1 X45.152 Y27.063 E18.90539
G1 X44.74 Y27.629 E18.91345
G1 X44.267 Y28.144 E18.92151
G1 X43.738 Y28.602 E18.92957
G1 X43.16 Y28.997 E18.93764
G1 X42.541 Y29.323 E18.9457
G1 X41.889 Y29.577 E18.95376
G1 X41.212 Y29.754 E18.96182
G1 X40.519 Y29.853 E18.96989
G1 X40 Y29.875 E18.97587
G1 X-40 Y29.872 E19.89759
G1 X-40.699 Y29.832 E19.90566
G1 X-41.388 Y29.713 E19.91371
G1 X-42.06 Y29.515 E19.92178
G1 X-42.704 Y29.243 E19.92984
G1 X-43.313 Y28.899 E19.9379
G1 X-43.879 Y28.487 E19.94596
G1 X-44.394 Y28.014 E19.95402
G1 X-44.852 Y27.485 E19.96208
G1 X-45.247 Y26.907 E19.97015
G1 X-45.573 Y26.288 E19.97821
G1 X-45.827 Y25.636 E19.98627
G1 X-46.004 Y24.959 E19.99433
G1 X-46.103 Y24.266 E20.0024
G1 X-46.125 Y23.747 E20.00838
G1 X-46.122 Y-23.75 E20.55562
G1 X-46.082 Y-24.449 E20.56368
G1 X-45.963 Y-25.138 E20.57174
G1 X-45.765 Y-25.81 E20.57981
G1 X-45.493 Y-26.454 E20.58787
G1 X-45.148 Y-27.063 E20.59593
G1 X-44.737 Y-27.629 E20.60399
G1 X-44.264 Y-28.145 E20.61205
G1 X-43.735 Y-28.602 E20.62011
G1 X-43.157 Y-28.997 E20.62817
G1 X-42.538 Y-29.323 E20.63623
G1 X-41.885 Y-29.577 E20.64431
G1 X-41.209 Y-29.754 E20.65236
G1 X-40.861 Y-29.804 E20.65641
G0 F1620 X-40.516 Y-29.853
G0 X-39.997 Y-29.875
G0 F3600 X-39.997 Y-29.525
G1 F3000 E20.66641
G1 F1800 X40 Y-29.525 E21.58809
G1 X40.678 Y-29.485 E21.59592
G1 X41.347 Y-29.366 E21.60375
G1 X41.997 Y-29.169 E21.61157
G1 X42.62 Y-28.897 E21.6194
G1 X43.206 Y-28.553 E21.62723
G1 X43.748 Y-28.143 E21.63506
G1 X44.238 Y-27.673 E21.64289
G1 X44.669 Y-27.148 E21.65071
G1 X45.036 Y-26.576 E21.65854
G1 X45.333 Y-25.965 E21.66637
G1 X45.557 Y-25.323 E21.6742
G1 X45.703 Y-24.66 E21.68202
G1 X45.775 Y-23.75 E21.69254
G1 X45.775 Y23.75 E22.23981
G1 X45.735 Y24.428 E22.24764
G1 X45.616 Y25.097 E22.25547
G1 X45.419 Y25.747 E22.26329
G1 X45.147 Y26.37 E22.27112
G1 X44.803 Y26.956 E22.27895
G1 X44.393 Y27.498 E22.28678
G1 X43.923 Y27.988 E22.2946
G1 X43.398 Y28.419 E22.30243
G1 X42.826 Y28.786 E22.31026
G1 X42.215 Y29.083 E22.31809
G1 X41.573 Y29.307 E22.32592
G1 X40.91 Y29.453 E22.33374
G1 X40 Y29.525 E22.34426
G1 X-40 Y29.522 E23.26598
G1 X-40.678 Y29.482 E23.2738
G1 X-41.347 Y29.363 E23.28163
G1 X-41.997 Y29.166 E23.28946
G1 X-42.62 Y28.893 E23.29729
G1 X-43.206 Y28.55 E23.30512
G1 X-43.748 Y28.14 E23.31295
G1 X-44.238 Y27.67 E23.32077
G1 X-44.67 Y27.145 E23.3286
G1 X-45.036 Y26.573 E23.33643
G1 X-45.333 Y25.962 E23.34425
G1 X-45.557 Y25.32 E23.35209
G1 X-45.703 Y24.657 E23.35991
G1 X-45.775 Y23.747 E23.37043
G1 X-45.772 Y-23.75 E23.91766
G1 X-45.732 Y-24.429 E23.9255
G1 X-45.613 Y-25.097 E23.93332
G1 X-45.415 Y-25.748 E23.94116
G1 X-45.143 Y-26.37 E23.94898
G1 X-44.8 Y-26.956 E23.9568
G1 X-44.39 Y-27.498 E23.96463
G1 X-43.92 Y-27.988 E23.97245
G1 X-43.395 Y-28.42 E23.98029
G1 X-42.823 Y-28.786 E23.98811
G1 X-42.212 Y-29.083 E23.99594
G1 X-41.57 Y-29.307 E24.00377
G1 X-40.907 Y-29.453 E24.01159
G1 X-40.863 Y-29.457 E24.0121
G0 F1620 X-39.997 Y-29.525
G0 F3600 X-39.997 Y-29.175
G1 F3000 E24.0221
G1 F1800 X40 Y-29.175 E24.94379
G1 X40.657 Y-29.135 E24.95137
G1 X41.305 Y-29.016 E24.95896
G1 X41.933 Y-28.819 E24.96654
G1 X42.533 Y-28.547 E24.97413
G1 X43.096 Y-28.205 E24.98172
G1 X43.613 Y-27.797 E24.98931
G1 X44.076 Y-27.33 E24.99689
G1 X44.48 Y-26.809 E25.00449
G1 X44.818 Y-26.244 E25.01207
G1 X45.084 Y-25.642 E25.01965
G1 X45.276 Y-25.012 E25.02724
G1 X45.39 Y-24.364 E25.03482
G1 X45.425 Y-23.75 E25.04191
G1 X45.425 Y23.75 E25.58918
G1 X45.385 Y24.407 E25.59676
G1 X45.266 Y25.055 E25.60435
G1 X45.069 Y25.683 E25.61193
G1 X44.797 Y26.283 E25.61952
G1 X44.455 Y26.846 E25.62711
G1 X44.047 Y27.363 E25.6347
G1 X43.58 Y27.826 E25.64228
G1 X43.059 Y28.23 E25.64988
G1 X42.494 Y28.568 E25.65746
G1 X41.892 Y28.834 E25.66504
G1 X41.262 Y29.026 E25.67263
G1 X40.614 Y29.14 E25.68021
G1 X40 Y29.175 E25.6873
G1 X-40 Y29.172 E26.60902
G1 X-40.657 Y29.132 E26.6166
G1 X-41.305 Y29.013 E26.62419
G1 X-41.933 Y28.816 E26.63177
G1 X-42.533 Y28.544 E26.63936
G1 X-43.096 Y28.202 E26.64695
G1 X-43.613 Y27.794 E26.65454
G1 X-44.076 Y27.327 E26.66212
G1 X-44.48 Y26.806 E26.66971
G1 X-44.818 Y26.241 E26.6773
G1 X-45.084 Y25.639 E26.68488
G1 X-45.276 Y25.009 E26.69247
G1 X-45.39 Y24.36 E26.70006
G1 X-45.425 Y23.747 E26.70714
G1 X-45.422 Y-23.75 E27.25437
G1 X-45.382 Y-24.408 E27.26197
G1 X-45.263 Y-25.055 E27.26955
G1 X-45.066 Y-25.684 E27.27714
G1 X-44.794 Y-26.283 E27.28472
G1 X-44.452 Y-26.846 E27.29231
G1 X-44.044 Y-27.363 E27.2999
G1 X-43.576 Y-27.827 E27.30749
G1 X-43.056 Y-28.23 E27.31507
G1 X-42.491 Y-28.568 E27.32265
G1 X-41.889 Y-28.834 E27.33024
G1 X-41.259 Y-29.026 E27.33783
G1 X-40.861 Y-29.096 E27.34248
G0 F1620 X-40.61 Y-29.14
G0 X-39.997 Y-29.175
G0 F3600 X-39.997 Y-28.825
G1 F3000 E27.35248
G1 F1800 X40 Y-28.825 E28.27417
G1 X40.636 Y-28.785 E28.28151
G1 X41.261 Y-28.666 E28.28884
G1 X41.867 Y-28.469 E28.29618
G1 X42.443 Y-28.198 E28.30351
G1 X42.981 Y-27.857 E28.31085
G1 X43.472 Y-27.451 E28.31819
G1 X43.908 Y-26.987 E28.32553
G1 X44.283 Y-26.472 E28.33287
G1 X44.59 Y-25.915 E28.3402
G1 X44.825 Y-25.323 E28.34753
G1 X44.984 Y-24.706 E28.35488
G1 X45.065 Y-24.074 E28.36222
G1 X45.075 Y-23.75 E28.36595
G1 X45.075 Y23.75 E28.91322
G1 X45.035 Y24.386 E28.92056
G1 X44.916 Y25.011 E28.92789
G1 X44.719 Y25.617 E28.93523
G1 X44.448 Y26.193 E28.94257
G1 X44.107 Y26.731 E28.94991
G1 X43.701 Y27.222 E28.95725
G1 X43.237 Y27.658 E28.96458
G1 X42.722 Y28.033 E28.97192
G1 X42.165 Y28.34 E28.97925
